lib/logo_updates/nrk-logo-nrk-mp3-title-below-on-dark.svg

<svg width="182" height="104" viewBox="0 0 182 104" fill="none" xmlns="http://www.w3.org/2000/svg">
<path d="M0 43V1.00381H13.7802V43H0ZM32.5283 7.68773L40.4532 43H25.3721L15.9092 1.00381H24.3676C26.3072 0.978642 28.1892 1.66237 29.6607 2.92636C31.1347 4.13734 32.1473 5.81844 32.5283 7.68773ZM42.5233 43V1.00381H56.3035V43H42.5233ZM66.7116 16.9743C65.2267 16.9888 63.7656 16.6003 62.4839 15.8504C61.2193 15.1194 60.1688 14.0689 59.438 12.8041C58.6872 11.5222 58.2986 10.0607 58.3134 8.57511C58.2964 7.09861 58.6853 5.64583 59.438 4.3755C60.1766 3.12447 61.2259 2.08533 62.4839 1.35882C63.766 0.609758 65.2269 0.221301 66.7116 0.234844C68.1877 0.218947 69.6399 0.607751 70.9108 1.35882C72.1562 2.09169 73.1943 3.12996 73.9271 4.3755C74.6789 5.64618 75.0677 7.09873 75.0517 8.57511C75.0655 10.0605 74.6769 11.5218 73.9271 12.8041C73.202 14.0633 72.1627 15.113 70.9108 15.8504C69.6398 16.6029 68.1866 16.9918 66.7097 16.9743H66.7116ZM77.1807 43V1.00381H90.9621V43H77.1807ZM108.408 23.9538C108.447 23.9946 108.742 24.4776 109.295 25.403C109.848 26.3283 110.567 27.5114 111.454 28.952C112.341 30.392 113.277 31.9199 114.262 33.536C115.247 35.1521 116.174 36.6803 117.043 38.1202C117.908 39.5602 118.894 41.1867 120 43H104.859C103.912 41.4621 103.055 40.0721 102.286 38.83C101.517 37.5878 100.7 36.2471 99.8334 34.8077C98.9653 33.3698 98.1071 31.9699 97.2587 30.6081C96.4103 29.2464 95.6813 28.0536 95.0714 27.0297C94.459 26.0051 94.0348 25.3149 93.7989 24.9594C93.2139 24.0771 92.8677 23.058 92.7944 22.0019C92.853 20.9883 93.1791 20.0084 93.7397 19.1619C93.9762 18.7676 94.41 18.0675 95.0409 17.062C95.6717 16.0564 96.411 14.8637 97.2587 13.4835C98.1064 12.1034 98.9647 10.6936 99.8334 9.25431C100.702 7.81501 101.519 6.46432 102.286 5.20247C103.056 3.94193 103.914 2.54205 104.859 1.00285H120L108.289 20.1082C107.926 20.6755 107.722 21.3292 107.697 22.0019C107.736 22.7081 107.983 23.3871 108.406 23.9538H108.408Z" fill="white"/>
<path d="M33.4128 61.1887H0V66.3888H13.6139V103.144H19.8563V66.3888H33.4118L33.4128 61.1887Z" fill="#9FDAF5"/>
<path d="M45.601 72.8008C44.4893 73.0979 43.4275 73.5558 42.4498 74.1599C41.4358 74.7895 40.4984 75.533 39.6557 76.3759C39.515 76.5157 39.3781 76.6714 39.2393 76.8182V72.4168L33.1752 73.3031V103.145H39.2393V80.8197C39.6898 80.5069 40.1563 80.2173 40.6366 79.9521C41.2308 79.6258 41.8461 79.3392 42.4786 79.0942C43.0939 78.8578 43.7173 78.6511 44.3525 78.4748C45.0049 78.2935 45.671 78.1648 46.3442 78.0897C47.0646 78.0105 47.7904 77.9907 48.5142 78.0305L49.2276 72.4758C48.009 72.3893 46.7844 72.499 45.601 72.8008Z" fill="#9FDAF5"/>
<path d="M79.7275 99.4211C79.293 99.4609 78.8551 99.3958 78.4514 99.2312C78.0477 99.0665 77.6899 98.8074 77.4087 98.4757C76.8575 97.5288 76.6282 96.4304 76.7548 95.3437L76.8736 83.1707C76.8867 81.8945 76.7268 80.6225 76.398 79.3888C76.1095 78.3068 75.6261 77.2856 74.9712 76.375C74.3097 75.4845 73.4696 74.74 72.5039 74.1886C71.382 73.5551 70.169 73.0967 68.9071 72.8295C67.364 72.4991 65.7884 72.3408 64.21 72.3577C62.958 72.3569 61.7075 72.4355 60.4656 72.5931C59.2916 72.7398 58.1292 72.9669 56.9866 73.2727C55.9276 73.5582 54.8856 73.9034 53.8661 74.3068L53.1517 79.3296C54.1426 78.9751 55.0841 78.6797 55.9759 78.4433C56.8677 78.207 57.7296 78.0099 58.562 77.8523C59.3774 77.697 60.2012 77.5888 61.0293 77.5283C61.8412 77.4686 62.6443 77.4387 63.4383 77.4387C64.6506 77.4131 65.8607 77.5521 67.0351 77.8523C67.8915 78.0658 68.6791 78.4929 69.3232 79.0933C69.8967 79.6776 70.3065 80.4008 70.5122 81.1911C70.7666 82.1655 70.887 83.1697 70.87 84.1762L70.863 85.6535L63.9129 86.1213C61.536 86.1877 59.1944 86.7094 57.0164 87.6578C55.3866 88.3668 53.9795 89.4998 52.9437 90.9374C52.065 92.2168 51.5984 93.7316 51.6059 95.2807C51.5949 96.7342 51.9528 98.167 52.6464 99.4467C53.3739 100.761 54.4681 101.839 55.7973 102.549C57.4193 103.388 59.232 103.795 61.059 103.731C62.7713 103.77 64.4758 103.489 66.0839 102.904C67.4738 102.363 68.7454 101.56 69.8285 100.54C70.2398 100.148 70.63 99.7347 70.9977 99.302C71.1136 99.9136 71.3312 100.502 71.6417 101.042C72.1714 101.947 72.9864 102.653 73.9605 103.051C75.037 103.481 76.1893 103.692 77.3492 103.672C77.7059 103.672 78.0531 103.662 78.3907 103.642C78.7212 103.623 79.0493 103.574 79.3707 103.495C79.6878 103.416 79.9743 103.347 80.2329 103.288C80.4657 103.236 80.6942 103.167 80.9165 103.081L81.5714 99.1218C81.2428 99.2333 80.9039 99.3124 80.5597 99.3581C80.2839 99.3965 80.006 99.4175 79.7275 99.4211ZM70.8165 95.8312C70.5137 96.1692 70.1822 96.4806 69.8256 96.762C69.1809 97.2683 68.4832 97.7041 67.7447 98.062C67.0092 98.4177 66.2299 98.676 65.4268 98.8302C64.5943 98.9901 63.7482 99.0692 62.9003 99.0666C61.931 99.0942 60.9671 98.9127 60.0752 98.5347C59.3499 98.2219 58.7382 97.6962 58.3222 97.0279C57.91 96.3198 57.7041 95.5116 57.7276 94.6938C57.6703 93.7086 57.942 92.7322 58.5005 91.9164C59.1477 91.1654 60.0249 90.6464 60.9976 90.4391C62.5165 90.0838 64.0753 89.9249 65.6351 89.9663H70.8412L70.8165 95.8312Z" fill="#9FDAF5"/>
<path d="M102.111 59.0025C101.496 58.8843 100.872 58.7956 100.238 58.7365C99.6038 58.6774 98.93 58.6478 98.2166 58.6478C96.9248 58.6396 95.6403 58.8392 94.4127 59.2388C93.2456 59.6203 92.179 60.2563 91.2912 61.1003C90.3721 61.9892 89.6618 63.0686 89.2105 64.2617C88.6847 65.6999 88.4326 67.2228 88.4673 68.7526V73.0074H84.0083V77.6165H88.4673V103.145H94.5314V77.6165H102.855V73.0074H94.5314V68.1027C94.5184 67.4286 94.6293 66.7577 94.8585 66.1231C95.0527 65.5869 95.3675 65.1017 95.779 64.7048C96.21 64.3113 96.7305 64.0274 97.2961 63.8776C97.9635 63.6936 98.6537 63.6041 99.3463 63.6116C99.8229 63.6116 100.277 63.6324 100.715 63.6708C101.153 63.7092 101.576 63.7692 101.993 63.848C102.41 63.9268 102.804 64.0056 103.182 64.0843C103.518 64.1508 103.846 64.2498 104.163 64.3799L103.925 59.4752C103.331 59.2783 102.725 59.1204 102.111 59.0025Z" fill="#9FDAF5"/>
<path d="M108.739 103.145H114.803V72.4168L108.739 73.3031V103.145Z" fill="#9FDAF5"/>
<path d="M113.942 60.0361C113.324 59.6613 112.614 59.4668 111.89 59.4747C111.158 59.4689 110.438 59.663 109.809 60.0361C109.189 60.397 108.669 60.9045 108.293 61.5134C107.916 62.1266 107.72 62.8333 107.729 63.5521C107.722 64.28 107.918 64.9955 108.293 65.6203C108.657 66.2384 109.18 66.7485 109.809 67.0977C110.444 67.4526 111.162 67.6359 111.89 67.6294C112.61 67.6379 113.318 67.4543 113.942 67.0977C114.553 66.7459 115.057 66.2351 115.398 65.6203C115.755 64.9892 115.94 64.2762 115.933 63.5521C115.942 62.8372 115.757 62.133 115.398 61.5134C115.045 60.9073 114.544 60.3993 113.942 60.0361Z" fill="#9FDAF5"/>
<path d="M149.94 73.0072H142.509L132.335 84.1166H130.142V58.5294L124.078 59.4158V103.144H130.142V88.6667H130.242L142.389 103.144H150.237L135.815 86.9924L149.94 73.0072Z" fill="#9FDAF5"/>
<path d="M167.028 86.837L181.153 72.8517H173.722L163.548 83.9611H161.355V58.375L155.291 59.2614V102.99H161.355V88.5122H161.454L173.602 102.99H181.45L167.028 86.837Z" fill="#9FDAF5"/>
</svg>

<svg xmlns="http://www.w3.org/2000/svg" viewBox="0 0 182 104"><path fill="#fff" d="M0 43V1.004h13.78V43H0ZM32.528 7.688 40.453 43h-15.08L15.908 1.004h8.459a7.965 7.965 0 0 1 5.293 1.922 8.31 8.31 0 0 1 2.867 4.762ZM42.523 43V1.004h13.78V43h-13.78Zm24.189-26.026a8.213 8.213 0 0 1-4.228-1.124 8.336 8.336 0 0 1-3.046-3.046 8.206 8.206 0 0 1-1.125-4.229 8.056 8.056 0 0 1 1.125-4.2 8.437 8.437 0 0 1 3.046-3.016A8.232 8.232 0 0 1 66.712.235a8.083 8.083 0 0 1 4.199 1.124 8.503 8.503 0 0 1 3.016 3.016 8.075 8.075 0 0 1 1.125 4.2 8.226 8.226 0 0 1-1.125 4.23 8.4 8.4 0 0 1-3.016 3.045 8.059 8.059 0 0 1-4.201 1.124h.002ZM77.18 43V1.004h13.781V43H77.181Zm31.227-19.046c.039.04.334.524.887 1.449.553.925 1.272 2.108 2.159 3.549a1143.28 1143.28 0 0 1 5.589 9.168A854.89 854.89 0 0 0 120 43h-15.141c-.947-1.538-1.804-2.928-2.573-4.17a382.214 382.214 0 0 1-2.453-4.022 351.934 351.934 0 0 0-2.574-4.2 213.445 213.445 0 0 1-2.188-3.578 62.753 62.753 0 0 0-1.272-2.07 6.119 6.119 0 0 1-1.005-2.958 5.744 5.744 0 0 1 .946-2.84c.236-.394.67-1.095 1.3-2.1.632-1.006 1.371-2.198 2.219-3.579.847-1.38 1.706-2.79 2.574-4.229.869-1.439 1.686-2.79 2.453-4.052.77-1.26 1.628-2.66 2.573-4.2H120l-11.711 19.106a3.773 3.773 0 0 0-.592 1.894c.039.706.286 1.385.709 1.952h.002Z"/><path fill="#9FDAF5" d="M33.413 61.189H0v5.2h13.614v36.755h6.242V66.389h13.556v-5.2ZM45.601 72.8a11.783 11.783 0 0 0-3.151 1.36 15.547 15.547 0 0 0-2.794 2.216c-.141.14-.278.295-.417.442v-4.401l-6.064.886v29.842h6.064V80.82a15.332 15.332 0 0 1 3.24-1.725 20.52 20.52 0 0 1 1.873-.62c.653-.181 1.319-.31 1.992-.385.72-.08 1.446-.1 2.17-.06l.714-5.554a11.408 11.408 0 0 0-3.627.325ZM79.728 99.421a2.723 2.723 0 0 1-2.32-.945 5.06 5.06 0 0 1-.653-3.132l.119-12.173a14.121 14.121 0 0 0-.476-3.782 9.238 9.238 0 0 0-1.427-3.014 8.038 8.038 0 0 0-2.467-2.186 12.64 12.64 0 0 0-3.597-1.36 21.345 21.345 0 0 0-4.697-.471 29.59 29.59 0 0 0-3.744.235 25.858 25.858 0 0 0-3.48.68c-1.058.285-2.1.63-3.12 1.034l-.714 5.023a35.161 35.161 0 0 1 5.41-1.478 21.6 21.6 0 0 1 2.467-.324c.812-.06 1.615-.09 2.41-.09a13.383 13.383 0 0 1 3.596.414 5.2 5.2 0 0 1 2.288 1.241 4.677 4.677 0 0 1 1.19 2.098c.254.974.374 1.979.357 2.985l-.007 1.477-6.95.468a18.575 18.575 0 0 0-6.897 1.537 9.872 9.872 0 0 0-4.072 3.28 7.606 7.606 0 0 0-1.338 4.343 8.605 8.605 0 0 0 1.04 4.166 7.803 7.803 0 0 0 3.151 3.102 10.643 10.643 0 0 0 5.262 1.182 13.783 13.783 0 0 0 5.025-.827 11.599 11.599 0 0 0 3.745-2.364c.41-.392.801-.805 1.169-1.238.116.612.333 1.2.644 1.74a4.78 4.78 0 0 0 2.319 2.009 8.73 8.73 0 0 0 3.388.621c.357 0 .704-.01 1.042-.03.33-.019.658-.068.98-.147.317-.079.603-.148.862-.207.233-.052.461-.121.683-.207l.655-3.96c-.328.112-.667.191-1.011.237-.276.038-.554.06-.832.063Zm-8.911-3.59c-.303.338-.635.65-.991.931-.645.506-1.343.942-2.081 1.3a9.392 9.392 0 0 1-2.318.768 13.18 13.18 0 0 1-2.527.237 6.749 6.749 0 0 1-2.825-.532 3.868 3.868 0 0 1-1.753-1.507 4.388 4.388 0 0 1-.594-2.334 4.458 4.458 0 0 1 .773-2.778 4.547 4.547 0 0 1 2.497-1.477 18.237 18.237 0 0 1 4.637-.473h5.206l-.024 5.865ZM102.111 59.002a19.509 19.509 0 0 0-1.873-.266 21.823 21.823 0 0 0-2.021-.088 12.043 12.043 0 0 0-3.804.59A8.25 8.25 0 0 0 91.29 61.1a8.661 8.661 0 0 0-2.08 3.162 12.268 12.268 0 0 0-.744 4.49v4.255h-4.459v4.61h4.46v25.528h6.063V77.617h8.324v-4.61h-8.324v-4.904a5.514 5.514 0 0 1 .328-1.98 3.74 3.74 0 0 1 .92-1.418 3.627 3.627 0 0 1 1.517-.827 7.412 7.412 0 0 1 2.05-.266c.477 0 .931.02 1.369.059.438.038.861.098 1.278.177.417.079.811.158 1.189.236.336.067.664.166.981.296l-.238-4.905a14.39 14.39 0 0 0-1.814-.473ZM108.739 103.145h6.064V72.417l-6.064.886v29.842ZM113.942 60.036a3.873 3.873 0 0 0-2.052-.561 4.018 4.018 0 0 0-2.081.561c-.62.361-1.14.868-1.516 1.477a3.802 3.802 0 0 0-.564 2.04 3.946 3.946 0 0 0 .564 2.067 4.027 4.027 0 0 0 1.516 1.478 4.19 4.19 0 0 0 2.081.531 4.038 4.038 0 0 0 2.052-.531 3.876 3.876 0 0 0 1.456-1.478 4.12 4.12 0 0 0 .535-2.068 3.967 3.967 0 0 0-.535-2.039 4.188 4.188 0 0 0-1.456-1.477ZM149.94 73.007h-7.431l-10.174 11.11h-2.193V58.529l-6.064.887v43.728h6.064V88.667h.1l12.147 14.477h7.848l-14.422-16.152 14.125-13.985ZM167.028 86.837l14.125-13.985h-7.431l-10.174 11.11h-2.193V58.374l-6.064.886v43.729h6.064V88.512h.099l12.148 14.478h7.848l-14.422-16.153Z"/></svg>
